X:185
T:Southwest Wind 
T:Connie the Soldier  
B:CRE1.029 (Ghaoth Aniar Andeas)
F:file ID: cre.1/185south_w
S:John Potts
N:CRE version of the A part is garbled. I have made changes based 
on O'Neill's setting of this tune ("Music of Ireland" #794)
M:6/8
Q:160
R:jig
K:D
D|EFG A2d|=cAG E2D|EFG EAA|EFG GED|
EFG A2d|=cAG E2D|EFG EAG|EDD D2:|
d|fed cde|fdd d2e|fed ced|cAA A2d|
fed cde|gf/e/d e2d|=cAG EAG|EDD D2:|

%%%

